X:57
T:Suutarin Tytar  (Cobbler's daughter)
M:2/4
L:1/16
Q:1/4=80
S:arr. Eira Mattsson (Washington DC Finlandia Foundation) ~1976
R:jenkka
K:Em
"Em" G2A>B A2G>F | E2F>G F2E>D | "Am" C2D2 E2D>C | "B7" B,6 z2 | !
"Em" G2A>B A2G>F | E2F>G F2E2 | "Am" F2G>A "B7" G2F2 | "Em" E6 z2 | !
"E7" B>cd2 c2B>c | "Am" B>AB2 c2A2 | "D7" d2c>d c2A2 | "G" B4 "B7" z4 | !
"Em" G2A>B A2G>F | E2F>G F2E>D | "Am" C2D2 E2D>C | "Em" (E4 E)B,EG | !
|: "Em" B4 B4 | "Am" A2F>A F4 | A2F>G "B7" AB/2A/2 G>F | "Em" G2G2 E4 | !
"Am" A4 A4 | "Em" G2E>G E4 | G2E>F GA/2G/2 F>E | "B7" F2F2 B4 | !
"E7" E2^G>A B2E>E | "Am" c2B>B A2F2 | "B7" B2B>B F2A2 | "Em" G8 | !
"B7" B,2^D>E F2B,>B, | "Em" G2F>F "Am" E2C2 | "Em" B,2B,>B, "B7" G2F2 |
[1 "Em" (E4 E)B,EG :|[2 "Em" E6 z2 ||

